!!!!SEGMENT: pl-kk--kk-i-1--055-004_anonim--missa-dominicale-sanctus.krn
!!!cenid: 15xx:777
!!!COM: Anonim
!!!COM-rismID: pe30004985
!!!CDT:
!!!CNT:
!!!OPR: [Missa] Dominicale
!!!OTL: Sanctus
!!!OMV: 004
!!!PDT:
!!!AGN:
!!!YEC: Copyright 2022 Narodowy Instytut Fryderyka Chopina (https://polishscores.org)
!!!YEM: License CC-BY-4.0 (https://creativecommons.org/licenses/by/4.0)
!!!SMS-siglum: PL-Kk
!!!SMS-shelfmark: Kk.I.1
!!!SMS-shelfwork: 055-004 M
!!!SMS-variant:
!!!SMS-altvar:
!!!NIFC-rismSourceID: 300257954
!!!NIFC-rismChildID: 300258009
!!!NIFC-islandoraID: pl-kk:1
!!!URL-pdf-islandora: https://repozytorium.nifc.pl/islandora/object/pl-kk%3A1/datastream/PDF/view
!!!URL-scan: https://polish.musicsources.pl/pl/lokalizacje/galeria/rekopisy/5736 @EN{Scan on Polish Music Sources Website} @PL{Skany w portalu Dziedzictwo Muzyki Polskiej w otwartym dostępie}
!!!IIIF: https://repozytorium.nifc.pl/islandora/object/pl-kk%3A1/datastream/IIIF/view
!!!ONB-nifc: UWAGA: Cantus (s. 166r-173v, skan 0168-0176), Altus (s. 162v-170r, skan 0356-0363), Tenor (s. 141r-146r, skan 0531-0536), Bassus (s. 152r-159v, skan 0714-0722). Części Mszy: 1. Kyrie, 2. Et in terra, 3. Sanctus, 4. Agnus Dei
!!!AIN: 1 alto 1 bass 1 soprn 1 tenor
!!!key: g:dor
**kern	**text	**kern	**text	**kern	**text	**kern	**text
*part4	*	*part3	*	*part2	*	*part1	*
*staff4	*	*staff3	*	*staff2	*	*staff1	*
*I"BASSVS	*	*I"TENOR	*	*I"ALTVS	*	*I"CANTVS	*
*I'B	*	*I'T	*	*I'A	*	*I'S	*
*Ibass	*	*Itenor	*	*Ialto	*	*Isoprn	*
*ICvox	*	*ICvox	*	*ICvox	*	*ICvox	*
*clefF4	*	*clefC4	*	*clefC4	*	*clefC3	*
*k[b-]	*	*k[b-]	*	*k[b-]	*	*k[b-]	*
*g:dor	*	*g:dor	*	*g:dor	*	*g:dor	*
*M2/1	*	*M2/1	*	*M2/1	*	*M2/1	*
*met(C|)	*	*met(C|)	*	*met(C|)	*	*met(C|)	*
=1-	=1-	=1-	=1-	=1-	=1-	=1-	=1-
*xywh-#720:1348,3084,4366,930	*	*xywh-#535:5975,2186,4532,1001	*	*xywh-#362:1285,1447,4685,975	*	*xywh-#174:5966,2356,4449,1017	*
*stria6	*	*stria6	*	*stria6	*	*stria6	*
*	*	*lig	*	*	*	*	*
!!LO:TX:t=P:problem:oddech/cezura na różnej wysokości:global
!LO:TX:t=P:problem=metrum przed kluczem	!	!LO:TX:b:t=1mum	!	!LO:TX:t=P:problem=metrum przed kluczem	!	!LO:TX:t=P:problem=brak metrum	!
2r	.	1G	San-	4G/	San-	2.g\	San-
.	.	.	.	4A/	-ctus.	.	.
2.GG/	San-	.	.	4B-\	.	.	.
.	.	.	.	4c\	.	8f\L	.
.	.	.	.	.	.	8e\J	.
.	.	1B-	.	2d\	.	2.d\	.
4AA/	.	.	.	.	.	.	.
4BB-/	.	.	.	2G/	.	.	.
4C/	.	.	.	.	.	4e\	.
*	*	*Xlig	*	*	*	*	*
=2-	=2-	=2-	=2-	=2-	=2-	=2-	=2-
4D/	.	1A	.	2r	.	4f\	.
4E/	.	.	.	.	.	4g\	.
4F/	.	.	.	2.d\	.	4a\	.
4D/	.	.	.	.	.	4f\	.
1E-X	-ctus.	1G	.	.	.	2g\	-ctus
.	.	.	.	8c\L	.	.	.
.	.	.	.	8B-\J	.	.	.
.	.	.	.	2c\	.	2r	.
=3-	=3-	=3-	=3-	=3-	=3-	=3-	=3-
1D	.	1F	.	2d\	.	4a\	.
.	.	.	.	.	.	4g\	.
.	.	.	.	2.d\	.	4f\	.
.	.	.	.	.	.	4e\	.
!	!	!LO:TX:t=P:problem=kreska pseudotaktowa	!	!	!	!	!
2r	.	[1G;l/	-ctus.	.	.	1d	.
.	.	.	.	4c\	.	.	.
4G\	.	.	.	4B-\	.	.	.
4F\	.	.	.	4A\	.	.	.
=4-	=4-	=4-	=4-	=4-	=4-	=4-	=4-
2.E-X\	.	0G_	.	2G/	.	2.g\	.
.	.	.	.	2B-\	.	.	.
4D/	.	.	.	.	.	4f\	.
2C/	.	.	.	2c\	.	2e-X\	.
!LO:TX:t=P:problem=# below	!	!	!	!	!	!	!
!LO:N:acc=#	!	!	!	!	!	!	!
2BBn/	.	.	.	2d\	.	2d\	.
=5-	=5-	=5-	=5-	=5-	=5-	=5-	=5-
1C	.	0G_	.	2e-X\	.	2c/	.
.	.	.	.	1c	.	2e-X\	.
[1GGl/	.	.	.	.	.	[1dl\	.
.	.	.	.	4B-\	.	.	.
.	.	.	.	4A\	.	.	.
=6-	=6-	=6-	=6-	=6-	=6-	=6-	=6-
!	!	!	!	!LO:N:acc=#	!	!	!
!	!	!	!	!LO:TX:t=P:problem=# below	!	!	!
0GG]	.	0G]	.	0Bnl\	.	0d]	.
*	*	*custos:G	*	*	*	*	*
=7||-	=7||-	=7	=7	=7||-	=7||-	=7||-	=7||-
*	*	*lig	*	*	*	*	*
!LO:PB:g=original	!	!LO:LB:g=original	!	!	!	!	!
*xywh-#720:5988,379,4448,1183	*	*xywh-#535:5813,3051,4715,1035	*	*	*	*	*
!	!	!LO:TX:b:t=2du(m)	!	!	!	!	!
1.G	San-	1G	San-	2.B-y/	San-	0d	San-
.	.	.	.	4c/	.	.	.
.	.	1B-	.	2d\	.	.	.
*	*	*	*	*custos:B	*	*	*
!	!	!	!	!LO:LB:g=original	!	!	!
*	*	*	*	*xywh-#362:1539,2326,4301,817	*	*	*
2G\	.	.	.	1B-/	.	.	.
*	*	*Xlig	*	*	*	*	*
=8-	=8-	=8-	=8-	=8-	=8-	=8-	=8-
2.F\	.	1c	.	.	.	0f	-ctus
.	.	.	.	4A/	.	.	.
4Eny\	-ctus	.	.	4G/	.	.	.
*lig	*	*lig	*	*	*	*	*
1D	.	1d	.	4A/	.	.	.
.	.	.	.	4F/	.	.	.
.	.	.	.	2.B-/	.	.	.
*	*	*	*	*	*	*custos:f	*
=9-	=9-	=9-	=9-	=9-	=9-	=9-	=9-
!	!	!	!	!	!	!LO:LB:g=original	!
*	*	*	*	*	*	*xywh-#174:6059,3243,4373,892	*
1C	.	1e-X	.	.	.	1r	.
.	.	.	.	8A/L	.	.	.
.	.	.	.	8G/J	.	.	.
.	.	.	.	2A/	.	.	.
*Xlig	*	*Xlig	*	*	*	*	*
2BB-y/	.	1d	.	1B-	-ctus	1.f	.
2.B-\	.	.	.	.	.	.	.
=10-	=10-	=10-	=10-	=10-	=10-	=10-	=10-
.	.	1c	.	1F	.	.	.
8A\L	.	.	.	.	.	.	.
8G\J	.	.	.	.	.	.	.
2A\	.	.	.	.	.	2f\	.
!	!	!LO:TX:t=P:problem=kreska pseudotaktowa	!	!	!	!	!
!	!	!LO:N:vis=0	!	!	!	!	!
2G\	.	[y1d;	-ctus.	2r	.	2.b-\	.
1B-\	.	.	.	4B-\	.	.	.
.	.	.	.	4c\	.	8a\L	.
.	.	.	.	.	.	8g\J	.
=11-	=11-	=11-	=11-	=11-	=11-	=11-	=11-
.	.	0dyy_y	.	4d\	.	4f\	.
.	.	.	.	4eny\	.	4g\	.
2F\	.	.	.	8f\L	.	2.a\	.
.	.	.	.	8e\	.	.	.
.	.	.	.	8d\	.	.	.
.	.	.	.	8c\J	.	.	.
1G	.	.	.	1B-	.	.	.
.	.	.	.	.	.	4g\	.
.	.	.	.	.	.	1g\	.
=12-	=12-	=12-	=12-	=12-	=12-	=12-	=12-
0Dl/	.	0dyy]y	.	0Al\	.	.	.
.	.	.	.	.	.	4f\	.
.	.	.	.	.	.	4eny\	.
!	!	!	!	!	!	!LO:TX:t=P:problem=# below	!
.	.	.	.	.	.	1f#Xl\	.
=13||-	=13||-	=13	=13	=13||-	=13||-	=13||-	=13||-
!	!	!LO:TX:b:t=3tium	!	!	!	!	!
2.D/	San-	1d	San-	0f	San-	4d\	San-
.	.	.	.	.	.	4e\	.
.	.	.	.	.	.	4fny\	.
4E/	.	.	.	.	.	4g\	.
*	*	*	*	*	*	*lig	*
4F\	.	1c	.	.	.	1a	.
4G\	.	.	.	.	.	.	.
4A\	.	.	.	.	.	.	.
4F\	.	.	.	.	.	.	.
=14-	=14-	=14-	=14-	=14-	=14-	=14-	=14-
1G	.	1B-	.	1d	-ctus	1g	.
*	*	*lig	*	*	*	*Xlig	*
2C/	-ctus	1c	.	2.e\	.	1g	-ctus
*custos:c	*	*	*	*	*	*	*
!LO:LB:g=original	!	!	!	!	!	!	!
*xywh-#720:6016,1529,4352,766	*	*	*	*	*	*	*
1c\	.	.	.	.	.	.	.
.	.	.	.	8d\L	.	.	.
.	.	.	.	8c\J	.	.	.
=15-	=15-	=15-	=15-	=15-	=15-	=15-	=15-
.	.	1G	.	2.d\	.	0g	.
4B-\	.	.	.	.	.	.	.
4A\	.	.	.	4c\	.	.	.
*	*	*Xlig	*	*	*	*	*
1G	.	1B-	.	2d\	.	.	.
.	.	.	.	2e\	.	.	.
*	*	*	*	*custos:f	*	*	*
=16-	=16-	=16-	=16-	=16-	=16-	=16-	=16-
!	!	!	!	!LO:LB:g=original	!	!	!
*	*	*	*	*xywh-#362:1566,3061,4211,851	*	*	*
1F	.	1A	.	1f	.	1c	.
*	*	*lig	*	*	*	*	*ij
2r	.	1G	.	0.d	.	2.B-/	San-
1G\	.	.	.	.	.	.	.
.	.	.	.	.	.	8A/L	.
.	.	.	.	.	.	8G/J	.
=17-	=17-	=17-	=17-	=17-	=17-	=17-	=17-
.	.	1D	.	.	.	2.A/	.
4F\	.	.	.	.	.	.	.
4E\	.	.	.	.	.	4G/	.
*	*	*Xlig	*	*	*	*	*
*	*	*lig	*	*	*	*	*
1D	.	1F	.	.	.	2A/	.
!	!	!	!	!	!	!LO:TX:t=P:problem=# below	!
!	!	!	!	!	!	!LO:N:acc=#	!
.	.	.	.	.	.	2Bn/	.
*	*	*	*	*	*	*custos:c	*
=18-	=18-	=18-	=18-	=18-	=18-	=18-	=18-
!	!	!	!	!	!	!LO:PB:g=original	!
*	*	*	*	*	*	*xywh-#175:1421,657,4441,940	*
1C	.	1E	.	1G	.	1c	.
*	*	*Xlig	*	*	*	*	*
2.BB-/	.	1F	.	0B-	.	1.d	.
4AA/	.	.	.	.	.	.	.
=19-	=19-	=19-	=19-	=19-	=19-	=19-	=19-
0GG	.	1G	-ctus	.	.	.	.
.	.	.	.	.	.	2d\	-ctus
*	*	*custos:D	*	*	*	*	*Xij
!	!	!LO:PB:g=original	!	!	!	!	!
*	*	*xywh-#536:1478,573,4390,906	*	*	*	*	*
.	.	1D	Do-	1G	.	2.B-/	do-
.	.	.	.	.	.	4B-/	-mi-
=20-	=20-	=20-	=20-	=20-	=20-	=20-	=20-
*	*	*lig	*	*	*	*	*
1FF	.	1F	-mi-	1.c	D(o-	2A/	-n(us)
*	*	*	*	*	*	*	*ij
.	.	.	.	.	.	1f	do-
1C	D(o-	1G	.	.	.	.	.
.	.	.	.	2c/	-mi)-	2e\	-mi-
*	*	*Xlig	*	*	*	*	*
=21-	=21-	=21-	=21-	=21-	=21-	=21-	=21-
2C/	-mi)-	1G,	-nus	2c/	-nus	1e	-n(us)
*	*	*	*	*	*	*	*Xij
2C/	-nus	.	.	1G	De-	.	.
4GG/	De-	1B-	De-	.	.	2.d\	de-
4AA/	.	.	.	.	.	.	.
4BB-/	.	.	.	2G/	-us	.	.
4C/	.	.	.	.	.	4e\	.
=22-	=22-	=22-	=22-	=22-	=22-	=22-	=22-
4D/	.	1A	.	2r	.	4f\	.
4E/	.	.	.	.	.	4g\	.
2.F\	.	.	.	1c	.	4a\	.
.	.	.	.	.	.	4f\	.
.	.	1G	.	.	.	1g	.
8E\L	.	.	.	.	.	.	.
8D\J	.	.	.	.	.	.	.
2E\	-us	.	.	2c\	.	.	.
=23-	=23-	=23-	=23-	=23-	=23-	=23-	=23-
2F\	.	1A,	-us	2c\	.	2c/	-us
1D	ſab-	.	.	2d\	.	2f\	.
.	.	1F	Sa-	2A/	.	1d	ſab-
*custos:BB	*	*	*	*	*	*	*
!LO:LB:g=original	!	!	!	!	!	!	!
*xywh-#720:5981,2268,4243,903	*	*	*	*	*	*	*
1BB-/	-ba-	.	.	2f\	ſab-	.	.
=24-	=24-	=24-	=24-	=24-	=24-	=24-	=24-
*	*	*lig	*	*	*	*	*
.	.	1F	-ba-	2d\	-ba-	2B-/	-ba-
2FF/	-oth	.	.	2c\	-oth	2.A/	-oth.
1C	.	1E	.	2.c\	.	.	.
.	.	.	.	.	.	8G/L	.
.	.	.	.	.	.	8F/J	.
.	.	.	.	.	.	2G/	.
.	.	.	.	4B-\	.	.	.
*	*	*Xlig	*	*	*	*	*
=25-	=25-	=25-	=25-	=25-	=25-	=25-	=25-
*	*ij	*	*	*	*	*	*
1D	ſab-	1F	.	4A/	.	1d	.
.	.	.	.	4G/	.	.	.
.	.	.	.	2A/	.	.	.
*	*	*	*	*custos:G	*	*	*
!	!	!	!	!LO:PB:g=original	!	!	!
*	*	*	*	*xywh-#362:5951,571,4376,968	*	*	*
2E-X\	.	[1G;l/	-oth.	2G/	.	2B-/	.
1C/	.	.	.	1c\	.	1e-X\	.
=26-	=26-	=26-	=26-	=26-	=26-	=26-	=26-
.	.	0G]	.	.	.	.	.
2C/	-ba-	.	.	2c\	.	2e-X\	.
!	!	!	!	!LO:TX:t=P:problem=# below	!	!	!
!	!	!	!	!LO:N:acc=#	!	!	!
1GGl/	-oth	.	.	1Bnl\	.	1dl\	.
*	*Xij	*	*	*	*	*	*
=27||-	=27||-	=27-	=27-	=27||-	=27||-	=27||-	=27||-
!	!	!	!	!	!	!LO:LB:g=original	!
*	*	*	*	*	*	*xywh-#175:1509,1543,4298,851	*
1.G	Ple-	1G	Ple-	2.B-y/	Ple-	1.d	Ple-
.	.	.	.	4c/	-ni	.	.
.	.	1B-	-ni	2d\	sunt	.	.
2G\	-ni	.	.	1B-/	.	2d\	-ni
=28-	=28-	=28-	=28-	=28-	=28-	=28-	=28-
1F	sunt	1c	.	.	.	0f	ſunt
.	.	.	.	2A/	c(ae)-	.	.
*	*	*lig	*	*	*	*	*
1B-	.	1d	.	2B-\	-li	.	.
*	*	*	*	*	*ij	*	*
.	.	.	.	2d\	ple-	.	.
=29-	=29-	=29-	=29-	=29-	=29-	=29-	=29-
2G\	cae-	1e-X	.	2B-\	-ni	1r	.
2A\	-li	.	.	2c\	sunt	.	.
*	*	*Xlig	*	*	*	*	*
1B-	.	1d	.	2d\	c(ae)-	1f	cae-
.	.	.	.	2B-\	-li	.	.
*	*	*	*	*	*Xij	*	*
=30-	=30-	=30-	=30-	=30-	=30-	=30-	=30-
2F\	.	1c,	.	4A/	et	2f\	-li
.	.	.	.	4B-/	.	.	.
2A\	et	.	.	1c	ter-	2eny\	(et)
*custos:G	*	*	*	*	*	*	*
!LO:LB:g=original	!	!	!	!	!	!	!
*xywh-#720:6043,3131,4195,841	*	*	*	*	*	*	*
0G	ter-	1d	ſunt	.	.	0g	ter-
.	.	.	.	4B-\	.	.	.
.	.	.	.	4A\	.	.	.
*	*	*custos:d	*	*	*	*	*
=31-	=31-	=31-	=31-	=31-	=31-	=31-	=31-
!	!	!LO:LB:g=original	!	!LO:N:acc=#	!	!	!
*	*	*xywh-#536:1556,1465,4235,800	*	*	*	*	*
.	.	1d	cae-	2Bni\	.	.	.
.	.	.	.	2B\	.	.	.
1C	-ra	1c,	-li	2c\	-a	1e	-ra
.	.	.	.	1c\	glo-	.	.
=32-	=32-	=32-	=32-	=32-	=32-	=32-	=32-
1F	glo-	1A	(et)	.	.	2r	.
.	.	.	.	2c\	-ri-	2a\	.
*	*	*lig	*	*	*	*	*
2D/	-ri-	1B-	ter-	2d\	-a	2f\	.
*	*	*	*	*custos:G	*	*	*
!	!	!	!	!LO:LB:g=original	!	!	!
*	*	*	*	*xywh-#362:6047,1410,4259,941	*	*	*
2Eny\	-a	.	.	2G/	tu-	2g\	.
=33-	=33-	=33-	=33-	=33-	=33-	=33-	=33-
1F	tu-	1A	.	2c\	-a	4a\	.
.	.	.	.	.	.	4g\	.
.	.	.	.	2c\	.	1f	.
*	*	*Xlig	*	*	*	*	*
1C	-a	1G,	-ra	2c\	.	.	.
.	.	.	.	2c\	.	2e\	.
=34-	=34-	=34-	=34-	=34-	=34-	=34-	=34-
1.D	glo-	1F	glo-	1G	.	2f\	.
.	.	.	.	.	.	4d\	et
.	.	.	.	.	.	4e\	.
*	*	*lig	*	*	*	*	*
.	.	1A	-ri-	1d	.	4f#Xi\	.
.	.	.	.	.	.	2g\	ter-
2D/	-ri-	.	.	.	.	.	.
.	.	.	.	.	.	4f#Xi\	-ra
=35-	=35-	=35-	=35-	=35-	=35-	=35-	=35-
1E-X	-a	1G	.	2.B-y\	gl(o-	1g	.
.	.	.	.	8A/L	-ri)-	.	.
.	.	.	.	8G/J	-a	.	.
*	*	*Xlig	*	*	*	*	*
*	*	*lig	*	*	*	*	*
2.BB-/	tu-	1B-	-a	2F/	tu-	2.d\	glo-
.	.	.	.	1G/	-a	.	.
4C/	.	.	.	.	.	4e-X\	-ri-
*	*	*	*	*	*	*custos:d	*
=36-	=36-	=36-	=36-	=36-	=36-	=36-	=36-
!	!	!	!	!	!	!LO:LB:g=original	!
*	*	*	*	*	*	*xywh-#175:1563,2381,4264,769	*
1D	.	1A	.	.	.	2d\	-a
.	.	.	.	2F/	.	2d\	tu-
*	*	*Xlig	*	*	*	*	*
!	!	!	!	!	!	!LO:TX:t=P:problem=# below	!
!	!	!	!	!	!	!LO:N:acc=#	!
2GG/	-a	1G	tu-	2G/	.	2Bn/	-a.
2GG/	glo-	.	.	2B-/	.	2d\	.
=37-	=37-	=37-	=37-	=37-	=37-	=37-	=37-
!	!	!	!	!LO:TX:t=P:problem=# below	!	!	!
!	!	!	!	!LO:N:acc=#	!	!	!
2GG/	-ri-	00G;l/	-a	2Bn/	.	2d\	.
2GG/	-a	.	.	2B/	.	2d\	.
1C	tu-	.	.	1c	.	1e-X	.
=38-	=38-	=38-	=38-	=38-	=38-	=38-	=38-
!	!	!	!	!LO:TX:t=P:problem=# below	!	!	!
!	!	!	!	!LO:N:acc=#	!	!	!
0GG;<l/	-a	.	.	0Bnl\	.	0dl\	.
=39||-	=39||-	=39-	=39-	=39||-	=39||-	=39||-	=39||-
!LO:PB:g=original	!	!	!	!	!	!	!
*xywh-#721:1497,614,4277,917	*	*	*	*	*	*	*
0D	O-	1D	O-	0A	O-	0d	O-
*	*	*lig	*	*	*	*	*
.	.	1F	-ſan-	.	.	.	.
=40-	=40-	=40-	=40-	=40-	=40-	=40-	=40-
0C	-san-	1G	.	0c	-san-	1e-X	-san-
*	*	*Xlig	*	*	*	*	*
.	.	1G,	-na	.	.	2e-\	-na.
.	.	.	.	.	.	2e-\	.
=41-	=41-	=41-	=41-	=41-	=41-	=41-	=41-
2BB-/	-na	1d	in	2F/	-na	2.B-y/	in
2BB-/	in	.	.	1f	in	.	.
.	.	.	.	.	.	4A/	ex-
*	*	*lig	*	*	*	*	*
1C	ex-	1c	ex-	.	.	1G	-cel-
.	.	.	.	2e\	ex-	.	.
*	*	*	*	*custos:d	*	*	*
=42-	=42-	=42-	=42-	=42-	=42-	=42-	=42-
!	!	!	!	!LO:LB:g=original	!	!	!
*	*	*	*	*xywh-#362:6013,2330,4287,838	*	*	*
1G	-cel-	1B-	.	1d	-cel-	2G/	-sis
.	.	.	.	.	.	1g	in
*	*	*Xlig	*	*	*	*	*
*	*	*lig	*	*	*	*	*
2C/	-sis	1c	-cel-	2e\	-sis	.	.
1c\	.	.	.	2e\	.	2g\	ex-
=43-	=43-	=43-	=43-	=43-	=43-	=43-	=43-
*	*	*	*	*	*ij	*	*
.	.	1G	.	2.d\	in	0g	-cel-
4B-\	.	.	.	.	.	.	.
4A\	.	.	.	4c\	ex-	.	.
*	*	*Xlig	*	*	*	*	*
*	*	*custos:B	*	*	*	*	*
!	!	!LO:LB:g=original	!	!	!	!	!
*	*	*xywh-#536:1548,2266,4306,857	*	*	*	*	*
1G	.	1B-	.	2d\	-cel-	.	.
.	.	.	.	2e\	.	.	.
=44-	=44-	=44-	=44-	=44-	=44-	=44-	=44-
1F	.	1A	.	1f	-sis	1c	-sis
2r	.	1F	.	2r	.	2r	.
2BB-/	.	.	.	2d\	in	2B-/	.
*	*	*	*	*	*	*custos:d	*
=45-	=45-	=45-	=45-	=45-	=45-	=45-	=45-
*	*	*	*	*	*	*	*ij
!	!	!	!	!	!	!LO:LB:g=original	!
*	*	*	*	*	*	*xywh-#175:1584,3124,4182,871	*
0BB-	.	1D	.	2.f\	ex-	2.d/	in
.	.	.	.	4e\	.	4c/	ex-
*	*	*lig	*	*	*	*	*
.	.	1F	.	1d	.	1B-	-cel-
=46-	=46-	=46-	=46-	=46-	=46-	=46-	=46-
*lig	*	*	*	*	*	*	*
1C	.	1E	.	2.c\	-cel-	2G/	-sis
.	.	.	.	.	.	2g\	in
.	.	.	.	4B-y\	.	.	.
*	*	*Xlig	*	*	*	*	*
1D	.	1F	.	1A	.	2fny\	ex-
.	.	.	.	.	.	2d\	-cel-
*Xlig	*	*	*	*	*	*	*
=47-	=47-	=47-	=47-	=47-	=47-	=47-	=47-
!	!	!	!	!LO:TX:t=P:problem=# below	!	!	!
!	!	!	!	!LO:N:acc=#	!	!	!
0GGl/	.	0G;l/	-ſis	0Bnl\	-sis	0dl\	-sis
*	*	*	*	*	*Xij	*	*Xij
!LO:LB:g=original	!	!	!	!	!	!	!
=48||-	=48||-	=48-	=48-	=48||-	=48||-	=48||-	=48||-
*xywh-#721:1579,1497,4161,862	*	*	*	*	*	*	*
1.G	Be-	1G	Be-	1B-y	Be-	1.d	Be-
.	.	1B-	-ne-	2d\	-ne-	.	.
2G\	-ne-	.	.	2.B-\	-dic-	2d\	-ne-
=49-	=49-	=49-	=49-	=49-	=49-	=49-	=49-
1F	-dic-	1c	.	.	.	1f	-dic-
.	.	.	.	8A/L	.	.	.
.	.	.	.	8G/J	.	.	.
.	.	.	.	2A/	.	.	.
2BB-/	-tus	1d	.	0B-	-tus	2f\	-tus
*	*ij	*	*	*	*	*	*
1BB-/	Be-	.	.	.	.	1f\	[[q(ui)
=50-	=50-	=50-	=50-	=50-	=50-	=50-	=50-
.	.	1d	-di-	.	.	.	.
2BB-/	-ne-	.	.	.	.	2f\	ve-
*	*	*	*	*custos:A	*	*	*
!	!	!	!	!LO:LB:g=original	!	!	!
*	*	*	*	*xywh-#362:6061,3114,4252,810	*	*	*
1.F	-dic-	1c	-ctus	2A/	.	0f	-nit]]
.	.	.	.	2A/	.	.	.
=51-	=51-	=51-	=51-	=51-	=51-	=51-	=51-
.	.	1A	qui	1c	.	.	.
2F\	-tus	.	.	.	.	.	.
*	*Xij	*lig	*	*	*	*	*
2.BB-/	qui	1B-	ve-	2.d\	qui	2f\	q(ui)
.	.	.	.	.	.	1g\	ue-
4C/	.	.	.	4e-X\	.	.	.
=52-	=52-	=52-	=52-	=52-	=52-	=52-	=52-
1D	ve-	1A	.	1d	ve-	.	.
.	.	.	.	.	.	2f\	-nit
*	*	*Xlig	*	*	*	*	*
2GG/	-nit	1G	-nit	2B-\	-nit	1g	.
*	*ij	*	*	*	*	*	*
2GG/	qui	.	.	2B-\	in	.	.
=53-	=53-	=53-	=53-	=53-	=53-	=53-	=53-
0D	ve-	1F	in	2.A/	no-	2r	.
.	.	.	.	.	.	2a\	in
.	.	.	.	4A/	-(m)i-	.	.
*	*	*lig	*	*	*	*	*
.	.	1A	no	2d\	-(n)e	2.f\	no-
.	.	.	.	2d\	in	.	.
.	.	.	.	.	.	4f\	-mi-
*	*	*	*	*	*	*custos:g	*
=54-	=54-	=54-	=54-	=54-	=54-	=54-	=54-
*	*	*	*	*	*	*xywh-#175:6094,564,4455,1042	*
!	!	!LO:TX:t=P:problem=zaczernienie i dziubek, coś jakby poprawka wysokości, ale w sumie nie wiadomo po co	!	!	!	!LO:PB:g=original	!
2GG/	-nit	1G	.	2.B-\	no-	2g\	-ne
*	*Xij	*	*	*	*	*	*
2E-X\	in	.	.	.	.	2g\	in
.	.	.	.	4B-\	-(m)i-	.	.
*	*	*Xlig	*	*	*	*	*
*	*	*custos:B	*	*	*	*	*
!	!	!LO:LB:g=original	!	!	!	!	!
*	*	*xywh-#536:1485,3039,4341,800	*	*	*	*	*
2.E-\	no-	1B-	.	2G/	-(n)e	2.g\	no-
.	.	.	.	2e-X\	.	.	.
4E-\	-mi-	.	.	.	.	4g\	-(mi)-
=55-	=55-	=55-	=55-	=55-	=55-	=55-	=55-
*	*	*lig	*	*	*	*	*
1BB-	-ne	1B-	.	2.d\	.	1f	-ne
.	.	.	.	4d\	.	.	.
2r	.	1A	.	2c\	.	2r	.
*	*ij	*	*	*	*	*	*
2D/	in	.	.	2d\	.	2f\	.
*custos:E	*	*Xlig	*	*	*	*	*
=56-	=56-	=56-	=56-	=56-	=56-	=56-	=56-
!LO:LB:g=original	!	!	!	!	!	!	!
*xywh-#721:1524,2339,4167,752	*	*	*	*	*	*	*
2.E-X\	no-	1G	Do-	2.B-\	do-	2.g\	.
4E-\	-mi-	.	.	8A/L	.	4g\	.
.	.	.	.	8G/J	.	.	.
*	*	*lig	*	*	*	*	*
1D	-ne	1F	-mi-	2A/	-mi-	1d	.
*	*Xij	*	*	*	*	*	*
.	.	.	.	2A/	-ni	.	.
=57-	=57-	=57-	=57-	=57-	=57-	=57-	=57-
1.C	Do-	1G	.	2c\	.	1.e-X	D(o-
.	.	.	.	1c	do-	.	.
*	*	*Xlig	*	*	*	*	*
.	.	[1Gl/	-ni.	.	.	.	.
2C/	-mi-	.	.	2c\	-mi-	2e-\	-mi)-
=58-	=58-	=58-	=58-	=58-	=58-	=58-	=58-
!	!	!	!	!LO:TX:t=P:problem=# below	!	!	!
!	!	!	!	!LO:N:acc=#	!	!	!
0GGl/	-ni.	0G]	.	0Bnl\	-ni	0dl\	-ni
==	==	==	==	==	==	==	==
*-	*-	*-	*-	*-	*-	*-	*-
!!!system-decoration: [s1,s2,s3,s4]
!!!RDF**kern: > = above
!!!RDF**kern: < = below
!!!RDF**kern: l = terminal long
!!!RDF**kern: i = editorial accidental
!!!ENC: Katarzyna Serwa
!!!END: 2022-03-21
!!!ENC: Mateusz Solarz
!!!END: 2022-03-17
!!!ENC-iiif: Jan Barakat
!!!END-iiif: 2022-09-01
